images/securety__3.svg

<svg width="104" height="104" viewBox="0 0 104 104" fill="none" xmlns="http://www.w3.org/2000/svg">
<path d="M52.6376 45.7885C53.4197 45.7885 54.0538 45.0345 54.0538 44.1045C54.0538 43.1744 53.4197 42.4204 52.6376 42.4204C51.8555 42.4204 51.2214 43.1744 51.2214 44.1045C51.2214 45.0345 51.8555 45.7885 52.6376 45.7885Z" fill="#010066"/>
<path d="M40.5031 45.7885C41.2852 45.7885 41.9192 45.0345 41.9192 44.1045C41.9192 43.1744 41.2852 42.4204 40.5031 42.4204C39.7209 42.4204 39.0869 43.1744 39.0869 44.1045C39.0869 45.0345 39.7209 45.7885 40.5031 45.7885Z" fill="#010066"/>
<path d="M75.9921 70.3298C74.2651 70.3286 72.5483 70.5941 70.9023 71.1168C70.8861 71.1017 70.8699 71.087 70.8536 71.0717C65.2922 65.5112 68.3788 58.5646 68.5118 58.2737C68.5197 58.257 68.527 58.24 68.5338 58.2229C68.788 57.5906 74.6994 42.604 69.6174 30.7583C69.6105 30.7423 69.6033 30.7265 69.5956 30.7108C66.0317 23.4082 60.1916 20.0691 55.9198 18.5536C51.5002 16.986 47.8741 16.9983 47.4428 17.0049C47.0086 16.9896 43.3742 16.9228 38.9478 18.463C34.6697 19.9515 28.8239 23.2859 25.2693 30.7185C25.263 30.7317 25.257 30.7449 25.2512 30.7583C20.1692 42.604 26.0806 57.5906 26.3347 58.2229C26.3416 58.24 26.3489 58.257 26.3567 58.2737C26.3898 58.3452 29.6041 65.4832 24.0147 71.072C23.1163 71.9184 22.2085 72.6609 21.3304 73.3789C17.0807 76.8545 13.4106 79.8557 13.4106 91.4912C13.4106 94.8878 17.0042 97.8451 23.8029 100.044C30.0379 102.06 38.2781 103.183 47.0436 103.215C47.0538 103.215 47.0638 103.217 47.0742 103.217C47.083 103.217 47.0915 103.216 47.1002 103.215C47.2116 103.216 47.3228 103.217 47.4343 103.217C54.4408 103.217 61.122 102.517 66.7355 101.225C68.9271 102.668 71.4258 103.579 74.032 103.885C76.6383 104.191 79.28 103.884 81.7463 102.987C84.2126 102.09 86.4351 100.63 88.2365 98.7216C90.0379 96.8134 91.3683 94.5105 92.1214 91.9967C92.8746 89.483 93.0297 86.828 92.5743 84.2436C92.1189 81.6592 91.0658 79.2171 89.4988 77.1122C87.9318 75.0072 85.8944 73.2977 83.5493 72.1201C81.2042 70.9425 78.6163 70.3295 75.9921 70.3298ZM47.0742 64.5872C43.6066 64.5872 37.633 63.1434 36.5858 53.4744C36.5461 53.1193 36.6111 52.7602 36.7729 52.4416C36.9347 52.1229 37.1862 51.8586 37.4965 51.6812C37.805 51.5059 38.1176 51.3385 38.4293 51.1775C39.0211 51.1705 39.6111 51.109 40.1916 50.9939C42.1481 50.5976 43.9108 49.5457 45.1885 48.0121L46.3506 46.6266C46.4209 46.5428 46.5092 46.4759 46.6088 46.4308C46.7085 46.3857 46.8171 46.3636 46.9264 46.3662C47.0358 46.3687 47.1432 46.3959 47.2406 46.4455C47.3381 46.4952 47.4231 46.5662 47.4894 46.6532L48.1918 47.575C49.044 48.7022 50.1543 49.6086 51.4293 50.2178C52.7044 50.8271 54.1071 51.1216 55.5195 51.0764C55.8968 51.2672 56.2763 51.4679 56.6519 51.6812C56.9621 51.8586 57.2136 52.1229 57.3754 52.4416C57.5372 52.7602 57.6022 53.1193 57.5624 53.4744C56.5154 63.1434 50.5418 64.5872 47.0742 64.5872ZM35.2355 48.179L35.2447 40.321C40.8198 38.4596 49.2091 37.144 58.9135 40.5195V47.8351C58.7858 47.9328 58.6493 48.0184 58.5056 48.0908C58.1044 48.2924 57.6896 48.4658 57.2643 48.6099C56.765 48.7775 56.247 48.8832 55.7219 48.9246C55.7008 48.9252 55.6798 48.9268 55.6589 48.9286C54.5535 48.999 53.4479 48.7939 52.4413 48.3315C51.4348 47.8692 50.5588 47.1641 49.8921 46.2796L49.1898 45.3579C48.9292 45.0157 48.595 44.7367 48.2118 44.5413C47.8287 44.3459 47.4065 44.2392 46.9766 44.2291C46.5466 44.219 46.1199 44.3058 45.728 44.4831C45.3362 44.6603 44.9892 44.9234 44.7129 45.253L43.5509 46.6383C42.5873 47.7983 41.2568 48.5949 39.7792 48.8964C39.2736 48.9983 38.7589 49.0476 38.2431 49.0436C38.2134 49.0415 38.1837 49.0406 38.1539 49.041C37.1208 49.0243 36.1119 48.7263 35.2355 48.179ZM48.1429 101.075V66.6846C49.0756 66.6245 49.9992 66.465 50.898 66.2088L50.8943 66.2135C50.8943 66.2135 52.5287 65.8841 55.675 64.1165C55.7754 64.061 55.874 64.0041 55.9728 63.9473C56.0944 63.8776 56.2176 63.8063 56.3435 63.7323L56.3405 63.7325C58.6721 62.3658 60.6578 60.4808 62.1439 58.2234C63.9381 55.4241 64.8818 52.1644 64.8605 48.8395V46.1727C64.8611 44.6719 64.4573 43.1987 63.6915 41.908C62.9258 40.6172 61.8264 39.5567 60.5089 38.8378C60.5056 38.836 60.5024 38.8339 60.4991 38.8321C60.4968 38.8308 60.4948 38.8294 60.4925 38.8282C60.4511 38.8061 60.4083 38.7867 60.3644 38.7702C60.3601 38.7686 60.3563 38.7661 60.352 38.7645C49.3278 34.6984 39.8376 36.4047 33.8176 38.5525C33.7377 38.582 33.6617 38.6211 33.5911 38.6688C33.5878 38.6705 33.5844 38.6718 33.5811 38.6735C32.2592 39.3911 31.1556 40.4522 30.3867 41.745C29.6179 43.0377 29.2124 44.5141 29.2131 46.0182V48.6851C29.1814 51.3263 29.7705 53.9381 30.9329 56.31C32.0953 58.6819 33.7985 60.7477 35.9053 62.3409C35.9053 62.3409 38.9596 65.013 42.8385 66.083L42.8378 66.0822C43.8642 66.4153 44.9284 66.6177 46.0053 66.6846V101.069C37.8494 100.956 30.2447 99.8802 24.4604 98.0098C18.8798 96.2051 15.5481 93.7684 15.5481 91.4912C15.5481 80.869 18.6969 78.2938 22.6835 75.0336C23.594 74.289 24.5355 73.5191 25.4925 72.6163C25.4997 72.6095 25.5069 72.6025 25.514 72.5956C26.8561 71.2864 27.9009 69.7037 28.5773 67.955C29.2537 66.2064 29.5459 64.3326 29.4341 62.4611C29.3557 60.724 28.9755 59.0139 28.3105 57.4073C28.0733 56.8012 22.5715 42.4596 27.2069 31.6209C29.794 26.2236 33.9548 22.4847 39.574 20.5083C43.8192 19.0151 47.3541 19.1395 47.3889 19.1419C47.4128 19.143 47.438 19.143 47.4623 19.1425C47.4965 19.1409 51.0314 19.0725 55.2796 20.5948C60.9011 22.6093 65.0673 26.3202 67.6631 31.6249C72.2966 42.4656 66.7923 56.8084 66.5577 57.4073C65.8928 59.0139 65.5126 60.724 65.4341 62.4611C65.3311 64.1865 65.5726 65.9151 66.1444 67.5463C66.7163 69.1774 67.607 70.6784 68.7648 71.9618C66.2802 73.1411 64.1225 74.9114 62.4808 77.1179C60.839 79.3245 59.7632 81.8998 59.3475 84.6185C58.9319 87.3372 59.1891 90.1164 60.0966 92.7126C61.0041 95.3089 62.5342 97.6431 64.553 99.5108C59.665 100.492 54.038 101.035 48.1429 101.075ZM75.9921 101.868C73.0847 101.868 70.2426 101.006 67.8251 99.3903C65.4077 97.775 63.5235 95.4792 62.4109 92.7931C61.2983 90.107 61.0071 87.1513 61.5743 84.2997C62.1415 81.4481 63.5416 78.8288 65.5974 76.773C67.6533 74.7171 70.2726 73.317 73.1241 72.7498C75.9757 72.1826 78.9314 72.4737 81.6175 73.5863C84.3036 74.6989 86.5995 76.5831 88.2148 79.0005C89.8301 81.418 90.6922 84.2601 90.6922 87.1675C90.6878 91.0649 89.1376 94.8013 86.3818 97.5572C83.626 100.313 79.8895 101.863 75.9921 101.868Z" fill="#010066"/>
<path d="M84.0836 80.8124C82.5115 80.2434 79.6291 78.9582 77.9874 76.7449C77.7607 76.4363 77.4671 76.1828 77.1287 76.0035C76.7903 75.8242 76.4157 75.7237 76.033 75.7094C75.9971 75.7053 75.961 75.7032 75.9249 75.7031H75.9243C75.8884 75.7032 75.8526 75.7053 75.8169 75.7093C75.4342 75.7236 75.0596 75.8242 74.7211 76.0035C74.3827 76.1828 74.0891 76.4362 73.8623 76.7449C72.2207 78.9582 69.3383 80.2434 67.7664 80.8124C67.2326 81.0063 66.7777 81.371 66.4722 81.8498C66.1668 82.3287 66.0279 82.8949 66.0771 83.4607C66.9917 93.9527 72.4205 97.3131 74.7121 98.2707C75.0959 98.4325 75.5083 98.5159 75.9248 98.5159C76.3414 98.5159 76.7538 98.4325 77.1376 98.2707C79.4293 97.3131 84.8582 93.9529 85.7728 83.4609C85.822 82.8951 85.6831 82.3288 85.3777 81.85C85.0723 81.3711 84.6174 81.0064 84.0836 80.8124ZM70.1809 84.8487C70.8896 90.3963 73.2764 92.8054 74.9472 93.8289C74.9467 93.8427 74.9452 93.8562 74.9452 93.8701V96.221C72.7813 95.1298 68.7847 91.961 68.0288 83.2905C68.0168 83.1548 68.0499 83.019 68.123 82.904C68.1961 82.7891 68.3051 82.7015 68.433 82.6548C70.071 82.0619 72.9745 80.7644 74.9452 78.5141V81.0326C74.9454 81.0939 74.9513 81.1552 74.9629 81.2154C73.5887 82.4827 71.9434 83.3272 70.7716 83.8221C70.5746 83.9052 70.4102 84.0506 70.3036 84.236C70.1969 84.4214 70.1539 84.6366 70.181 84.8487L70.1809 84.8487ZM83.8208 83.2906C83.0649 91.9607 79.0686 95.1296 76.9045 96.2209V93.8701C76.9045 93.8562 76.903 93.8426 76.9025 93.8289C78.5733 92.8054 80.96 90.3963 81.6687 84.8487C81.6958 84.6366 81.6528 84.4214 81.5461 84.236C81.4395 84.0506 81.2751 83.9053 81.078 83.8221C79.9063 83.3272 78.2611 82.4827 76.8868 81.2154C76.8984 81.1551 76.9043 81.0939 76.9045 81.0326V78.5142C78.8752 80.7644 81.7786 82.062 83.4167 82.6549C83.5447 82.7016 83.6536 82.7892 83.7267 82.9042C83.7998 83.0191 83.8329 83.155 83.8208 83.2907L83.8208 83.2906Z" fill="#010066"/>
<path d="M59.2623 59.807C59.0918 60.4176 58.7358 60.9571 58.2235 61.3306C56.3462 62.6995 51.4608 66 48 66C44.675 66 38.5852 62.9534 35.8697 61.5004C34.981 61.0248 34.3336 60.2119 34.0341 59.2495L33.9306 58.9169C32.4572 54.1825 35.9016 49.3468 40.8576 49.192L47 49L53.4081 49.4272C57.8392 49.7226 60.8788 54.0164 59.6847 58.2938L59.2623 59.807Z" fill="#010066"/>
</svg>

<svg width="104" height="104" fill="none" xmlns="http://www.w3.org/2000/svg"><path d="M52.638 45.788c.782 0 1.416-.753 1.416-1.683s-.634-1.685-1.416-1.685c-.782 0-1.417.754-1.417 1.684 0 .93.635 1.684 1.417 1.684ZM40.503 45.788c.782 0 1.416-.753 1.416-1.683s-.634-1.685-1.416-1.685c-.782 0-1.416.754-1.416 1.684 0 .93.634 1.684 1.416 1.684Z" fill="#010066"/><path d="M75.992 70.33a16.778 16.778 0 0 0-5.09.787l-.048-.045c-5.562-5.56-2.475-12.507-2.342-12.798a.875.875 0 0 0 .022-.051c.254-.632 6.165-15.619 1.083-27.465a1.069 1.069 0 0 0-.021-.047c-3.564-7.303-9.404-10.642-13.676-12.157-4.42-1.568-8.046-1.556-8.477-1.55-.434-.014-4.069-.081-8.495 1.459-4.278 1.488-10.124 4.823-13.679 12.255a1.185 1.185 0 0 0-.018.04c-5.082 11.846.83 26.833 1.084 27.465l.022.05c.033.072 3.247 7.21-2.342 12.799-.899.846-1.806 1.589-2.685 2.307-4.25 3.475-7.92 6.477-7.92 18.112 0 3.397 3.594 6.354 10.393 8.553 6.235 2.016 14.475 3.139 23.24 3.171l.031.002.026-.002.334.002c7.007 0 13.688-.7 19.302-1.992a16.84 16.84 0 0 0 21.5-2.503A16.834 16.834 0 0 0 75.993 70.33Zm-28.918-5.743c-3.467 0-9.441-1.444-10.488-11.113a1.832 1.832 0 0 1 .91-1.793c.309-.175.622-.342.933-.503a9.648 9.648 0 0 0 1.763-.184 8.77 8.77 0 0 0 4.996-2.982l1.163-1.385a.73.73 0 0 1 1.138.026l.703.922a8.832 8.832 0 0 0 7.328 3.501c.377.191.756.392 1.132.605a1.83 1.83 0 0 1 .91 1.793c-1.047 9.67-7.02 11.113-10.488 11.113ZM35.236 48.18l.009-7.858c5.575-1.861 13.964-3.177 23.669.199v7.315a2.586 2.586 0 0 1-.408.256 9.69 9.69 0 0 1-1.242.519 6.437 6.437 0 0 1-1.605.319 6.69 6.69 0 0 1-5.767-2.65l-.702-.921a2.865 2.865 0 0 0-4.477-.105l-1.162 1.385a6.625 6.625 0 0 1-3.772 2.258 7.48 7.48 0 0 1-1.625.145 5.683 5.683 0 0 1-2.919-.862Zm12.907 52.896v-34.39a13.13 13.13 0 0 0 2.755-.476l-.004.004s1.635-.329 4.781-2.096l.298-.17c.121-.07.245-.14.37-.215h-.003a17.61 17.61 0 0 0 5.804-5.509 17.186 17.186 0 0 0 2.717-9.383v-2.667a8.351 8.351 0 0 0-4.352-7.335l-.01-.006-.007-.004a1.076 1.076 0 0 0-.128-.058l-.012-.006c-11.024-4.066-20.514-2.36-26.534-.212-.08.03-.156.07-.227.117l-.01.005a8.354 8.354 0 0 0-4.368 7.344v2.667a16.867 16.867 0 0 0 6.692 13.656s3.055 2.672 6.934 3.742h-.001a12.84 12.84 0 0 0 3.167.602v34.384c-8.156-.113-15.76-1.189-21.545-3.06-5.58-1.804-8.912-4.24-8.912-6.518 0-10.622 3.149-13.197 7.135-16.457.911-.745 1.852-1.515 2.81-2.418l.021-.02a13.07 13.07 0 0 0 3.92-10.135 14.98 14.98 0 0 0-1.123-5.054c-.238-.606-5.74-14.947-1.104-25.786 2.587-5.397 6.748-9.136 12.367-11.113 4.245-1.493 7.78-1.368 7.815-1.366h.073c.034-.001 3.57-.07 7.818 1.453 5.621 2.014 9.787 5.725 12.383 11.03 4.634 10.84-.87 25.183-1.105 25.782a14.985 14.985 0 0 0-1.124 5.054 13.026 13.026 0 0 0 3.33 9.5 16.824 16.824 0 0 0-4.211 27.55c-4.888.981-10.515 1.524-16.41 1.564Zm27.85.793a14.697 14.697 0 0 1-13.582-9.075 14.7 14.7 0 1 1 28.281-5.626 14.717 14.717 0 0 1-14.7 14.701Z" fill="#010066"/><path d="M84.084 80.812c-1.573-.569-4.455-1.854-6.097-4.067a2.543 2.543 0 0 0-1.954-1.036.989.989 0 0 0-.216 0 2.544 2.544 0 0 0-1.955 1.036c-1.641 2.213-4.524 3.498-6.096 4.067a2.58 2.58 0 0 0-1.689 2.649c.915 10.492 6.344 13.852 8.635 14.81a3.122 3.122 0 0 0 2.426 0c2.291-.958 7.72-4.318 8.635-14.81a2.58 2.58 0 0 0-1.69-2.649ZM70.18 84.85c.709 5.547 3.095 7.956 4.766 8.98l-.002.041v2.351c-2.164-1.091-6.16-4.26-6.916-12.93a.619.619 0 0 1 .404-.636c1.638-.593 4.541-1.89 6.512-4.14v2.518c0 .06.006.122.018.182-1.374 1.268-3.02 2.112-4.191 2.607a.979.979 0 0 0-.591 1.027Zm13.64-1.558c-.756 8.67-4.752 11.839-6.916 12.93v-2.35l-.002-.042c1.67-1.024 4.057-3.433 4.766-8.98a.98.98 0 0 0-.591-1.027c-1.172-.495-2.817-1.34-4.191-2.607a.985.985 0 0 0 .017-.182v-2.519c1.971 2.25 4.875 3.548 6.513 4.14a.618.618 0 0 1 .404.637ZM59.262 59.807c-.17.61-.526 1.15-1.038 1.524C56.346 62.699 51.46 66 48 66c-3.325 0-9.415-3.047-12.13-4.5a3.823 3.823 0 0 1-1.836-2.25l-.103-.333c-1.474-4.735 1.97-9.57 6.927-9.725L47 49l6.408.427c4.431.296 7.47 4.59 6.277 8.867l-.423 1.513Z" fill="#010066"/></svg>
